Adwaita++/apps/scalable/dvd95.svg

<svg enable-background="new" height="128" viewBox="0 0 128 128" width="128" xmlns="http://www.w3.org/2000/svg">
  <path d="m63.923816 4.1523653c-33.197789 0-59.923816 26.7260207-59.923816 59.9238237 0 33.197792 26.726027 59.923811 59.923816 59.923811 33.197795 0 59.923814-26.726019 59.923814-59.923811 0-33.197803-26.726019-59.9238237-59.923814-59.9238237zm0 34.2421837a25.681636 25.681636 0 0 1 25.681632 25.68164 25.681636 25.681636 0 0 1 -25.681632 25.68164 25.681636 25.681636 0 0 1 -25.681633-25.68164 25.681636 25.681636 0 0 1 25.681633-25.68164z" opacity=".2"/>
  <path d="m63.923842 30.821767a32.102043 32.102041 0 0 0 -32.102046 32.102041 32.102043 32.102041 0 0 0 32.102046 32.102043 32.102043 32.102041 0 0 0 32.102039-32.102043 32.102043 32.102041 0 0 0 -32.102039-32.102041zm0 19.261224c7.091984 0 12.840813 5.748835 12.840813 12.840817 0 7.091983-5.748829 12.840818-12.840813 12.840818-7.091985 0-12.840819-5.748835-12.840819-12.840818 0-7.091982 5.748834-12.840817 12.840819-12.840817z" fill="#848484"/>
  <path d="m63.923842 2.9999958c-33.197791 0-59.923817 26.7260202-59.923817 59.9238122 0 33.197793 26.726026 59.923812 59.923817 59.923812 33.197789 0 59.923818-26.726019 59.923818-59.923812 0-33.197792-26.726029-59.9238122-59.923818-59.9238122zm0 34.2421792a25.681636 25.681633 0 0 1 25.681632 25.681633 25.681636 25.681633 0 0 1 -25.681632 25.681635 25.681636 25.681633 0 0 1 -25.681635-25.681635 25.681636 25.681633 0 0 1 25.681635-25.681633z" fill="#e4e4e4"/>
  <path d="m87.458748 51.222208c-20.159445 0-36.388895 16.229446-36.388895 36.3889 0 20.159442 16.22945 36.388892 36.388895 36.388892 20.159442 0 36.388892-16.22945 36.388892-36.388892 0-20.159454-16.22945-36.3889-36.388892-36.3889zm0 20.793657a15.595241 15.595241 0 0 1 15.595242 15.595243 15.595241 15.595241 0 0 1 -15.595242 15.595242 15.595241 15.595241 0 0 1 -15.595239-15.595242 15.595241 15.595241 0 0 1 15.595239-15.595243z" opacity=".2"/>
  <path d="m87.458764 67.417273a19.49405 19.494049 0 0 0 -19.494052 19.494048 19.49405 19.494049 0 0 0 19.494052 19.494049 19.49405 19.494049 0 0 0 19.494056-19.494049 19.49405 19.494049 0 0 0 -19.494056-19.494048zm0 11.696428c4.306626 0 7.797618 3.490996 7.797618 7.79762 0 4.306626-3.490992 7.797621-7.797618 7.797621-4.306627 0-7.797622-3.490995-7.797622-7.797621 0-4.306624 3.490995-7.79762 7.797622-7.79762z" fill="#848484"/>
  <path d="m87.458764 50.522429c-20.159447 0-36.388896 16.229445-36.388896 36.388892 0 20.159449 16.229449 36.388889 36.388896 36.388889 20.159436 0 36.388896-16.22944 36.388896-36.388889 0-20.159447-16.22946-36.388892-36.388896-36.388892zm0 20.793652a15.595241 15.595239 0 0 1 15.595236 15.59524 15.595241 15.595239 0 0 1 -15.595236 15.595239 15.595241 15.595239 0 0 1 -15.59524-15.595239 15.595241 15.595239 0 0 1 15.59524-15.59524z" fill="#8ff0a4"/>
</svg>

<?xml version="1.0" encoding="UTF-8" standalone="no"?>
<svg
   xmlns:dc="http://purl.org/dc/elements/1.1/"
   xmlns:cc="http://creativecommons.org/ns#"
   xmlns:rdf="http://www.w3.org/1999/02/22-rdf-syntax-ns#"
   xmlns:svg="http://www.w3.org/2000/svg"
   xmlns="http://www.w3.org/2000/svg"
   xmlns:xlink="http://www.w3.org/1999/xlink"
   xmlns:sodipodi="http://sodipodi.sourceforge.net/DTD/sodipodi-0.dtd"
   xmlns:inkscape="http://www.inkscape.org/namespaces/inkscape"
   style="enable-background:new"
   width="128"
   height="128"
   version="1.0"
   viewBox="0 0 128 128"
   id="svg15"
   sodipodi:docname="dvd95.svg"
   inkscape:version="0.92.3 (2405546, 2018-03-11)">
  <metadata
     id="metadata19">
    <rdf:RDF>
      <cc:Work
         rdf:about="">
        <dc:format>image/svg+xml</dc:format>
        <dc:type
           rdf:resource="http://purl.org/dc/dcmitype/StillImage" />
        <dc:title>
  Adwaita Icon Template
 </dc:title>
      </cc:Work>
    </rdf:RDF>
  </metadata>
  <sodipodi:namedview
     pagecolor="#ffffff"
     bordercolor="#666666"
     borderopacity="1"
     objecttolerance="10"
     gridtolerance="10"
     guidetolerance="10"
     inkscape:pageopacity="0"
     inkscape:pageshadow="2"
     inkscape:window-width="1920"
     inkscape:window-height="1009"
     id="namedview17"
     showgrid="false"
     inkscape:zoom="6.5234375"
     inkscape:cx="64"
     inkscape:cy="64"
     inkscape:window-x="0"
     inkscape:window-y="34"
     inkscape:window-maximized="1"
     inkscape:current-layer="svg15" />
  <title
     id="title4162">
  Adwaita Icon Template
 </title>
  <defs
     id="defs7">
    <linearGradient
       id="linearGradient950">
      <stop
         style="stop-color:#9a9996"
         id="stop946"
         offset="0" />
      <stop
         style="stop-color:#77767b"
         id="stop948"
         offset="1" />
    </linearGradient>
    <linearGradient
       id="linearGradient1001"
       x1="1660.857"
       x2="1662.99"
       y1="806.297"
       y2="812.882"
       gradientTransform="matrix(1.8293937,-0.81599442,0.81599442,1.8293937,-3645.9624,100.02949)"
       gradientUnits="userSpaceOnUse"
       xlink:href="#linearGradient950" />
  </defs>
  <path
     style="opacity:0.2"
     d="M 63.923816,4.1523653 C 30.726027,4.1523653 4,30.878386 4,64.076189 4,97.273981 30.726027,124 63.923816,124 97.121611,124 123.84763,97.273981 123.84763,64.076189 123.84763,30.878386 97.121611,4.1523653 63.923816,4.1523653 Z m 0,34.2421837 a 25.681636,25.681636 0 0 1 25.681632,25.68164 25.681636,25.681636 0 0 1 -25.681632,25.68164 25.681636,25.681636 0 0 1 -25.681633,-25.68164 25.681636,25.681636 0 0 1 25.681633,-25.68164 z"
     id="path9" />
  <path
     style="fill:#848484"
     d="M 63.923842,30.821767 A 32.102043,32.102041 0 0 0 31.821796,62.923808 32.102043,32.102041 0 0 0 63.923842,95.025851 32.102043,32.102041 0 0 0 96.025881,62.923808 32.102043,32.102041 0 0 0 63.923842,30.821767 Z m 0,19.261224 c 7.091984,0 12.840813,5.748835 12.840813,12.840817 0,7.091983 -5.748829,12.840818 -12.840813,12.840818 -7.091985,0 -12.840819,-5.748835 -12.840819,-12.840818 0,-7.091982 5.748834,-12.840817 12.840819,-12.840817 z"
     id="path11" />
  <path
     style="fill:#e4e4e4"
     d="m 63.923842,2.9999958 c -33.197791,0 -59.923817,26.7260202 -59.923817,59.9238122 0,33.197793 26.726026,59.923812 59.923817,59.923812 33.197789,0 59.923818,-26.726019 59.923818,-59.923812 0,-33.197792 -26.726029,-59.9238122 -59.923818,-59.9238122 z m 0,34.2421792 A 25.681636,25.681633 0 0 1 89.605474,62.923808 25.681636,25.681633 0 0 1 63.923842,88.605443 25.681636,25.681633 0 0 1 38.242207,62.923808 25.681636,25.681633 0 0 1 63.923842,37.242175 Z"
     id="path13" />
  <path
     id="path826"
     d="m 87.458748,51.222208 c -20.159445,0 -36.388895,16.229446 -36.388895,36.3889 0,20.159442 16.22945,36.388892 36.388895,36.388892 20.159442,0 36.388892,-16.22945 36.388892,-36.388892 0,-20.159454 -16.22945,-36.3889 -36.388892,-36.3889 z m 0,20.793657 A 15.595241,15.595241 0 0 1 103.05399,87.611108 15.595241,15.595241 0 0 1 87.458748,103.20635 15.595241,15.595241 0 0 1 71.863509,87.611108 15.595241,15.595241 0 0 1 87.458748,72.015865 Z"
     style="opacity:0.2;stroke-width:1"
     inkscape:connector-curvature="0" />
  <path
     id="path828"
     d="M 87.458764,67.417273 A 19.49405,19.494049 0 0 0 67.964712,86.911321 19.49405,19.494049 0 0 0 87.458764,106.40537 19.49405,19.494049 0 0 0 106.95282,86.911321 19.49405,19.494049 0 0 0 87.458764,67.417273 Z m 0,11.696428 c 4.306626,0 7.797618,3.490996 7.797618,7.79762 0,4.306626 -3.490992,7.797621 -7.797618,7.797621 -4.306627,0 -7.797622,-3.490995 -7.797622,-7.797621 0,-4.306624 3.490995,-7.79762 7.797622,-7.79762 z"
     style="fill:#848484;stroke-width:1"
     inkscape:connector-curvature="0" />
  <path
     id="path830"
     d="m 87.458764,50.522429 c -20.159447,0 -36.388896,16.229445 -36.388896,36.388892 0,20.159449 16.229449,36.388889 36.388896,36.388889 20.159436,0 36.388896,-16.22944 36.388896,-36.388889 0,-20.159447 -16.22946,-36.388892 -36.388896,-36.388892 z m 0,20.793652 A 15.595241,15.595239 0 0 1 103.054,86.911321 15.595241,15.595239 0 0 1 87.458764,102.50656 15.595241,15.595239 0 0 1 71.863524,86.911321 15.595241,15.595239 0 0 1 87.458764,71.316081 Z"
     style="fill:#8ff0a4;stroke-width:1;fill-opacity:1"
     inkscape:connector-curvature="0" />
</svg>
